X:893
T:Oot Be Est Da Vong
R:reel
H:A Shetland tune
Z:id:hn-reel-893
M:C|
L:1/8
K:D
A2AF ABde | ~f3d edBd | A2AF ABde |1 fdef d2dB :|2 fdef d2ef ||
|: g2ge f2fd | edef edBd |1 g2ge f2fd | edef a2af :|2 AF~F2 ABde | fdef d2dB || 

